copytrade/img/icomoon/achievements.svg

<svg width="24" height="24" viewBox="0 0 24 24" fill="none" xmlns="http://www.w3.org/2000/svg">
<path fill-rule="evenodd" clip-rule="evenodd" d="M6 3.875C6 3.39175 6.39175 3 6.875 3H16.875C17.3582 3 17.75 3.39175 17.75 3.875V6.22844C18.0955 6.08138 18.4758 6 18.875 6C20.4628 6 21.75 7.28718 21.75 8.875C21.75 10.4628 20.4628 11.75 18.875 11.75C18.4758 11.75 18.0955 11.6686 17.75 11.5216V11.875C17.75 13.4331 17.131 14.9275 16.0293 16.0293C15.1359 16.9227 13.9843 17.4986 12.75 17.6845V20H15.875C16.3582 20 16.75 20.3918 16.75 20.875C16.75 21.3582 16.3582 21.75 15.875 21.75H11.875H7.875C7.39175 21.75 7 21.3582 7 20.875C7 20.3918 7.39175 20 7.875 20H11V17.6845C9.76565 17.4986 8.61415 16.9227 7.72075 16.0293C6.61897 14.9275 6 13.4331 6 11.875V11.5216C5.65446 11.6686 5.27423 11.75 4.875 11.75C3.28718 11.75 2 10.4628 2 8.875C2 7.28718 3.28718 6 4.875 6C5.27423 6 5.65446 6.08138 6 6.22844V3.875ZM17.75 8.875C17.75 9.49632 18.2537 10 18.875 10C19.4963 10 20 9.49632 20 8.875C20 8.25368 19.4963 7.75 18.875 7.75C18.2537 7.75 17.75 8.25368 17.75 8.875ZM4.875 7.75C5.49632 7.75 6 8.25368 6 8.875C6 9.49632 5.49632 10 4.875 10C4.25368 10 3.75 9.49632 3.75 8.875C3.75 8.25368 4.25368 7.75 4.875 7.75Z" fill="#A6ACB7"/>
</svg>

<svg width="24" height="24" fill="none" xmlns="http://www.w3.org/2000/svg"><path fill-rule="evenodd" clip-rule="evenodd" d="M6 3.875C6 3.392 6.392 3 6.875 3h10c.483 0 .875.392.875.875v2.353a2.875 2.875 0 110 5.293v.354a5.876 5.876 0 01-5 5.81V20h3.125a.875.875 0 010 1.75h-8a.875.875 0 010-1.75H11v-2.316a5.875 5.875 0 01-5-5.809v-.353a2.875 2.875 0 110-5.293V3.874zm11.75 5a1.125 1.125 0 102.25 0 1.125 1.125 0 00-2.25 0zM4.875 7.75a1.125 1.125 0 110 2.25 1.125 1.125 0 010-2.25z" fill="#A6ACB7"/></svg>
